applications/help-browser.svg

<svg 
    xmlns="http://www.w3.org/2000/svg" width="48" height="48">
    <defs>
        <clipPath id="b">
            <path fill="none" stroke="#000" d="M-24-8v-24h-24z"/>
        </clipPath>
        <clipPath id="c">
            <path fill="none" stroke="#000" d="M-24-8v-24h-24z"/>
        </clipPath>
        <clipPath id="d">
            <path fill="none" stroke="#000" d="M-24-8v-24h-24z"/>
        </clipPath>
        <clipPath id="e">
            <path fill="none" stroke="#000" d="M-24-8v-24h-24z"/>
        </clipPath>
        <filter id="a">
            <feGaussianBlur in="SourceAlpha" stdDeviation=".8"/>
            <feOffset dy=".4"/>
            <feComponentTransfer>
                <feFuncA slope=".3" type="linear"/>
            </feComponentTransfer>
            <feMerge>
                <feMergeNode/>
                <feMergeNode in="SourceGraphic"/>
            </feMerge>
        </filter>
    </defs>
    <g fill-rule="evenodd">
        <path fill="#fafafa" d="M24 2A22 22 0 0 0 2 24a22 22 0 0 0 22 22 22 22 0 0 0 22-22A22 22 0 0 0 24 2zm0 12a10 10 0 0 1 10 10 10 10 0 0 1-10 10 10 10 0 0 1-10-10 10 10 0 0 1 10-10z" filter="url(#a)"/>
        <path fill="#f44336" d="M-24-30A22 22 0 0 0-46-8a22 22 0 0 0 22 22A22 22 0 0 0-2-8a22 22 0 0 0-22-22zm0 12A10 10 0 0 1-14-8 10 10 0 0 1-24 2 10 10 0 0 1-34-8a10 10 0 0 1 10-10z" clip-path="url(#b)" transform="translate(48 32)"/>
        <path fill="#f44336" d="M-24-30A22 22 0 0 0-46-8a22 22 0 0 0 22 22A22 22 0 0 0-2-8a22 22 0 0 0-22-22zm0 12A10 10 0 0 1-14-8 10 10 0 0 1-24 2 10 10 0 0 1-34-8a10 10 0 0 1 10-10z" clip-path="url(#c)" transform="rotate(-90 16 -16)"/>
        <path fill="#f44336" d="M-24-30A22 22 0 0 0-46-8a22 22 0 0 0 22 22A22 22 0 0 0-2-8a22 22 0 0 0-22-22zm0 12A10 10 0 0 1-14-8 10 10 0 0 1-24 2 10 10 0 0 1-34-8a10 10 0 0 1 10-10z" clip-path="url(#d)" transform="rotate(90 -16 32)"/>
        <path fill="#f44336" d="M-24-30A22 22 0 0 0-46-8a22 22 0 0 0 22 22A22 22 0 0 0-2-8a22 22 0 0 0-22-22zm0 12A10 10 0 0 1-14-8 10 10 0 0 1-24 2 10 10 0 0 1-34-8a10 10 0 0 1 10-10z" clip-path="url(#e)" transform="rotate(180 0 8)"/>
    </g>
</svg>

<?xml version="1.0" encoding="UTF-8" standalone="no"?>
<!-- Created with Inkscape (http://www.inkscape.org/) -->

<svg
   xmlns:dc="http://purl.org/dc/elements/1.1/"
   xmlns:cc="http://creativecommons.org/ns#"
   xmlns:rdf="http://www.w3.org/1999/02/22-rdf-syntax-ns#"
   xmlns:svg="http://www.w3.org/2000/svg"
   xmlns="http://www.w3.org/2000/svg"
   xmlns:sodipodi="http://sodipodi.sourceforge.net/DTD/sodipodi-0.dtd"
   xmlns:inkscape="http://www.inkscape.org/namespaces/inkscape"
   width="48"
   height="48"
   id="svg4152"
   version="1.1"
   inkscape:version="0.92.1 r"
   viewBox="0 0 48 48"
   sodipodi:docname="help-browser.svg">
  <defs
     id="defs4154">
    <clipPath
       clipPathUnits="userSpaceOnUse"
       id="clipPath857">
      <path
         style="fill:none;fill-rule:evenodd;stroke:#000000;stroke-width:1px;stroke-linecap:butt;stroke-linejoin:miter;stroke-opacity:1"
         d="M -24,-8 V -32 H -48 Z"
         id="path859"
         inkscape:connector-curvature="0" />
    </clipPath>
    <clipPath
       clipPathUnits="userSpaceOnUse"
       id="clipPath857-5">
      <path
         style="fill:none;fill-rule:evenodd;stroke:#000000;stroke-width:1px;stroke-linecap:butt;stroke-linejoin:miter;stroke-opacity:1"
         d="M -24,-8 V -32 H -48 Z"
         id="path859-3"
         inkscape:connector-curvature="0" />
    </clipPath>
    <clipPath
       clipPathUnits="userSpaceOnUse"
       id="clipPath857-6">
      <path
         style="fill:none;fill-rule:evenodd;stroke:#000000;stroke-width:1px;stroke-linecap:butt;stroke-linejoin:miter;stroke-opacity:1"
         d="M -24,-8 V -32 H -48 Z"
         id="path859-2"
         inkscape:connector-curvature="0" />
    </clipPath>
    <clipPath
       clipPathUnits="userSpaceOnUse"
       id="clipPath857-1">
      <path
         style="fill:none;fill-rule:evenodd;stroke:#000000;stroke-width:1px;stroke-linecap:butt;stroke-linejoin:miter;stroke-opacity:1"
         d="M -24,-8 V -32 H -48 Z"
         id="path859-27"
         inkscape:connector-curvature="0" />
    </clipPath>
    <filter
       style="color-interpolation-filters:sRGB;"
       inkscape:label="Drop Shadow"
       id="filter945">
      <feFlood
         flood-opacity="0.298039"
         flood-color="rgb(0,0,0)"
         result="flood"
         id="feFlood935" />
      <feComposite
         in="flood"
         in2="SourceGraphic"
         operator="in"
         result="composite1"
         id="feComposite937" />
      <feGaussianBlur
         in="composite1"
         stdDeviation="0.8"
         result="blur"
         id="feGaussianBlur939" />
      <feOffset
         dx="0"
         dy="0.4"
         result="offset"
         id="feOffset941" />
      <feComposite
         in="SourceGraphic"
         in2="offset"
         operator="over"
         result="composite2"
         id="feComposite943" />
    </filter>
  </defs>
  <sodipodi:namedview
     id="base"
     pagecolor="#ededed"
     bordercolor="#000000"
     borderopacity="0.49803922"
     inkscape:pageopacity="0"
     inkscape:pageshadow="2"
     inkscape:zoom="5.5494504"
     inkscape:cx="24.468825"
     inkscape:cy="15.299941"
     inkscape:current-layer="layer1"
     showgrid="false"
     inkscape:grid-bbox="true"
     inkscape:document-units="px"
     inkscape:showpageshadow="false"
     borderlayer="true"
     inkscape:window-width="1920"
     inkscape:window-height="1012"
     inkscape:window-x="0"
     inkscape:window-y="32"
     inkscape:window-maximized="1"
     inkscape:snap-object-midpoints="true"
     inkscape:snap-center="true">
    <inkscape:grid
       type="xygrid"
       id="grid4700"
       color="#000000"
       opacity="0.0627451"
       empcolor="#000000"
       empopacity="0.1254902"
       empspacing="4"
       spacingx="2"
       spacingy="2" />
  </sodipodi:namedview>
  <metadata
     id="metadata4157">
    <rdf:RDF>
      <cc:Work
         rdf:about="">
        <dc:format>image/svg+xml</dc:format>
        <dc:type
           rdf:resource="http://purl.org/dc/dcmitype/StillImage" />
        <dc:title />
      </cc:Work>
    </rdf:RDF>
  </metadata>
  <g
     id="layer1"
     inkscape:label="Layer 1"
     inkscape:groupmode="layer"
     transform="translate(0,32)">
    <path
       style="color:#000000;clip-rule:nonzero;display:inline;overflow:visible;visibility:visible;opacity:1;isolation:auto;mix-blend-mode:normal;color-interpolation:sRGB;color-interpolation-filters:linearRGB;solid-color:#000000;solid-opacity:1;fill:#fafafa;fill-opacity:1;fill-rule:evenodd;stroke:none;stroke-width:0.1;stroke-linecap:round;stroke-linejoin:round;stroke-miterlimit:4;stroke-dasharray:none;stroke-dashoffset:0;stroke-opacity:0.25098039;color-rendering:auto;image-rendering:auto;shape-rendering:auto;text-rendering:auto;enable-background:accumulate;filter:url(#filter945)"
       d="M 24 2 A 22 22 0 0 0 2 24 A 22 22 0 0 0 24 46 A 22 22 0 0 0 46 24 A 22 22 0 0 0 24 2 z M 24 14 A 10 10 0 0 1 34 24 A 10 10 0 0 1 24 34 A 10 10 0 0 1 14 24 A 10 10 0 0 1 24 14 z "
       transform="translate(0,-32)"
       id="path4174" />
    <path
       inkscape:connector-curvature="0"
       style="color:#000000;clip-rule:nonzero;display:inline;overflow:visible;visibility:visible;opacity:1;isolation:auto;mix-blend-mode:normal;color-interpolation:sRGB;color-interpolation-filters:linearRGB;solid-color:#000000;solid-opacity:1;fill:#f44336;fill-opacity:1;fill-rule:evenodd;stroke:none;stroke-width:0.1;stroke-linecap:round;stroke-linejoin:round;stroke-miterlimit:4;stroke-dasharray:none;stroke-dashoffset:0;stroke-opacity:0.25098039;color-rendering:auto;image-rendering:auto;shape-rendering:auto;text-rendering:auto;enable-background:accumulate"
       d="m -24,-30 a 22,22 0 0 0 -22,22 22,22 0 0 0 22,22 22,22 0 0 0 22,-22 22,22 0 0 0 -22,-22 z m 0,12 a 10,10 0 0 1 10,10 10,10 0 0 1 -10,10 10,10 0 0 1 -10,-10 10,10 0 0 1 10,-10 z"
       id="path4174-7"
       clip-path="url(#clipPath857)"
       transform="translate(48)" />
    <path
       inkscape:connector-curvature="0"
       style="color:#000000;clip-rule:nonzero;display:inline;overflow:visible;visibility:visible;opacity:1;isolation:auto;mix-blend-mode:normal;color-interpolation:sRGB;color-interpolation-filters:linearRGB;solid-color:#000000;solid-opacity:1;fill:#f44336;fill-opacity:1;fill-rule:evenodd;stroke:none;stroke-width:0.1;stroke-linecap:round;stroke-linejoin:round;stroke-miterlimit:4;stroke-dasharray:none;stroke-dashoffset:0;stroke-opacity:0.25098039;color-rendering:auto;image-rendering:auto;shape-rendering:auto;text-rendering:auto;enable-background:accumulate"
       d="m -24,-30 a 22,22 0 0 0 -22,22 22,22 0 0 0 22,22 22,22 0 0 0 22,-22 22,22 0 0 0 -22,-22 z m 0,12 a 10,10 0 0 1 10,10 10,10 0 0 1 -10,10 10,10 0 0 1 -10,-10 10,10 0 0 1 10,-10 z"
       id="path4174-7-5"
       clip-path="url(#clipPath857-5)"
       transform="rotate(-90,0,-32)" />
    <path
       inkscape:connector-curvature="0"
       style="color:#000000;clip-rule:nonzero;display:inline;overflow:visible;visibility:visible;opacity:1;isolation:auto;mix-blend-mode:normal;color-interpolation:sRGB;color-interpolation-filters:linearRGB;solid-color:#000000;solid-opacity:1;fill:#f44336;fill-opacity:1;fill-rule:evenodd;stroke:none;stroke-width:0.1;stroke-linecap:round;stroke-linejoin:round;stroke-miterlimit:4;stroke-dasharray:none;stroke-dashoffset:0;stroke-opacity:0.25098039;color-rendering:auto;image-rendering:auto;shape-rendering:auto;text-rendering:auto;enable-background:accumulate"
       d="m -24,-30 a 22,22 0 0 0 -22,22 22,22 0 0 0 22,22 22,22 0 0 0 22,-22 22,22 0 0 0 -22,-22 z m 0,12 a 10,10 0 0 1 10,10 10,10 0 0 1 -10,10 10,10 0 0 1 -10,-10 10,10 0 0 1 10,-10 z"
       id="path4174-7-9"
       clip-path="url(#clipPath857-6)"
       transform="rotate(90,0,16)" />
    <path
       inkscape:connector-curvature="0"
       style="color:#000000;clip-rule:nonzero;display:inline;overflow:visible;visibility:visible;opacity:1;isolation:auto;mix-blend-mode:normal;color-interpolation:sRGB;color-interpolation-filters:linearRGB;solid-color:#000000;solid-opacity:1;fill:#f44336;fill-opacity:1;fill-rule:evenodd;stroke:none;stroke-width:0.1;stroke-linecap:round;stroke-linejoin:round;stroke-miterlimit:4;stroke-dasharray:none;stroke-dashoffset:0;stroke-opacity:0.25098039;color-rendering:auto;image-rendering:auto;shape-rendering:auto;text-rendering:auto;enable-background:accumulate"
       d="m -24,-30 a 22,22 0 0 0 -22,22 22,22 0 0 0 22,22 22,22 0 0 0 22,-22 22,22 0 0 0 -22,-22 z m 0,12 a 10,10 0 0 1 10,10 10,10 0 0 1 -10,10 10,10 0 0 1 -10,-10 10,10 0 0 1 10,-10 z"
       id="path4174-7-0"
       clip-path="url(#clipPath857-1)"
       transform="rotate(180,0,-8)" />
  </g>
</svg>
